dist/images/graphics/icons/hearth.svg

<svg width="20" height="19" fill="none" xmlns="http://www.w3.org/2000/svg"><path d="M10.1 15.55l-.1.1-.11-.1C5.14 11.24 2 8.39 2 5.5 2 3.5 3.5 2 5.5 2c1.54 0 3.04 1 3.57 2.36h1.86C11.46 3 12.96 2 14.5 2c2 0 3.5 1.5 3.5 3.5 0 2.89-3.14 5.74-7.9 10.05zM14.5 0c-1.74 0-3.41.81-4.5 2.08C8.91.81 7.24 0 5.5 0 2.42 0 0 2.41 0 5.5c0 3.77 3.4 6.86 8.55 11.53L10 18.35l1.45-1.32C16.6 12.36 20 9.27 20 5.5 20 2.41 17.58 0 14.5 0z" fill="#4926E8"/></svg>

<svg width="20" height="19" viewBox="0 0 20 19" fill="none" xmlns="http://www.w3.org/2000/svg">
<path d="M10.1 15.55L10 15.65L9.89 15.55C5.14 11.24 2 8.39 2 5.5C2 3.5 3.5 2 5.5 2C7.04 2 8.54 3 9.07 4.36H10.93C11.46 3 12.96 2 14.5 2C16.5 2 18 3.5 18 5.5C18 8.39 14.86 11.24 10.1 15.55ZM14.5 0C12.76 0 11.09 0.81 10 2.08C8.91 0.81 7.24 0 5.5 0C2.42 0 0 2.41 0 5.5C0 9.27 3.4 12.36 8.55 17.03L10 18.35L11.45 17.03C16.6 12.36 20 9.27 20 5.5C20 2.41 17.58 0 14.5 0Z" fill="#4926E8"/>
</svg>
